devices/16/drive-harddisk.svg

<?xml version="1.0" encoding="UTF-8" standalone="no"?>
<svg
   xmlns:dc="http://purl.org/dc/elements/1.1/"
   xmlns:cc="http://creativecommons.org/ns#"
   xmlns:rdf="http://www.w3.org/1999/02/22-rdf-syntax-ns#"
   xmlns:svg="http://www.w3.org/2000/svg"
   xmlns="http://www.w3.org/2000/svg"
   xmlns:xlink="http://www.w3.org/1999/xlink"
   version="1.0"
   width="16"
   height="16"
   id="svg3297">
  <metadata
     id="metadata58">
    <rdf:RDF>
      <cc:Work
         rdf:about="">
        <dc:format>image/svg+xml</dc:format>
        <dc:type
           rdf:resource="http://purl.org/dc/dcmitype/StillImage" />
        <dc:title />
      </cc:Work>
    </rdf:RDF>
  </metadata>
  <defs
     id="defs3299">
    <linearGradient
       id="linearGradient4472">
      <stop
         id="stop4474"
         style="stop-color:#ffffff;stop-opacity:1"
         offset="0" />
      <stop
         id="stop4476"
         style="stop-color:#ffffff;stop-opacity:0.23529412"
         offset="0.02116842" />
      <stop
         id="stop4478"
         style="stop-color:#ffffff;stop-opacity:0.15686275"
         offset="0.99223143" />
      <stop
         id="stop4480"
         style="stop-color:#ffffff;stop-opacity:0.39215687"
         offset="1" />
    </linearGradient>
    <linearGradient
       id="linearGradient2215-9">
      <stop
         id="stop2223-6"
         style="stop-color:#7a7a7a;stop-opacity:1"
         offset="0" />
      <stop
         id="stop2219-1"
         style="stop-color:#474747;stop-opacity:1"
         offset="1" />
    </linearGradient>
    <linearGradient
       id="linearGradient7056-0">
      <stop
         id="stop7064-4"
         style="stop-color:#e6e6e6;stop-opacity:1"
         offset="0" />
      <stop
         id="stop7060-2"
         style="stop-color:#c8c8c8;stop-opacity:1"
         offset="1" />
    </linearGradient>
    <radialGradient
       cx="4.1993008"
       cy="2.3117516"
       r="7.9999995"
       fx="4.1993008"
       fy="2.3117516"
       id="radialGradient8215"
       xlink:href="#linearGradient7056-0"
       gradientUnits="userSpaceOnUse"
       gradientTransform="matrix(1.1767008,1.0376968,-0.76927742,0.87232541,1.0363585,-3.2771526)" />
    <linearGradient
       x1="53.99139"
       y1="87.89592"
       x2="53.99139"
       y2="104.28131"
       id="linearGradient8226"
       xlink:href="#linearGradient2215-9"
       gradientUnits="userSpaceOnUse"
       gradientTransform="matrix(0.1242128,0,0,0.1863981,0.233129,-3.9907482)" />
    <linearGradient
       gradientTransform="matrix(0.26751495,0,0,0.26751495,4.7162587,-0.01354682)"
       gradientUnits="userSpaceOnUse"
       xlink:href="#linearGradient4472"
       id="linearGradient4161"
       y2="41.03442"
       x2="23.99999"
       y1="7.3399634"
       x1="23.99999" />
    <linearGradient
       id="linearGradient8105">
      <stop
         id="stop8107"
         style="stop-color:#f5f5f5;stop-opacity:1"
         offset="0" />
      <stop
         id="stop8109"
         style="stop-color:#e7e7e7;stop-opacity:1"
         offset="0.25027597" />
      <stop
         id="stop8111"
         style="stop-color:#8c8c8c;stop-opacity:1"
         offset="0.69348532" />
      <stop
         id="stop8113"
         style="stop-color:#dddddd;stop-opacity:1"
         offset="0.83542866" />
      <stop
         id="stop8115"
         style="stop-color:#a8a8a8;stop-opacity:1"
         offset="1" />
    </linearGradient>
    <linearGradient
       id="linearGradient4236-0">
      <stop
         id="stop4238-4"
         style="stop-color:#eeeeee;stop-opacity:1"
         offset="0" />
      <stop
         id="stop4240-3"
         style="stop-color:#eeeeee;stop-opacity:0"
         offset="1" />
    </linearGradient>
    <linearGradient
       id="linearGradient6309">
      <stop
         id="stop6311"
         style="stop-color:#000000;stop-opacity:1"
         offset="0" />
      <stop
         id="stop6313"
         style="stop-color:#bbbbbb;stop-opacity:0"
         offset="1" />
    </linearGradient>
    <linearGradient
       id="linearGradient4035">
      <stop
         id="stop4037"
         style="stop-color:#f5f5f5;stop-opacity:1"
         offset="0" />
      <stop
         id="stop4039"
         style="stop-color:#e7e7e7;stop-opacity:1"
         offset="0.47025558" />
      <stop
         id="stop4041"
         style="stop-color:#8c8c8c;stop-opacity:1"
         offset="0.69348532" />
      <stop
         id="stop4043"
         style="stop-color:#dddddd;stop-opacity:1"
         offset="0.83542866" />
      <stop
         id="stop4045"
         style="stop-color:#a8a8a8;stop-opacity:1"
         offset="1" />
    </linearGradient>
    <linearGradient
       id="linearGradient6310-8">
      <stop
         id="stop6312-6"
         style="stop-color:#ffffff;stop-opacity:1"
         offset="0" />
      <stop
         id="stop6314-6"
         style="stop-color:#ffffff;stop-opacity:0"
         offset="1" />
    </linearGradient>
    <radialGradient
       cx="127.31733"
       cy="143.82751"
       r="78.728165"
       fx="127.31733"
       fy="143.82751"
       id="radialGradient8198"
       xlink:href="#linearGradient8105"
       gradientUnits="userSpaceOnUse"
       gradientTransform="matrix(0.04179653,-0.01388393,0.00338688,0.03797545,-0.54190607,-0.79595187)" />
    <radialGradient
       cx="24"
       cy="42"
       r="21"
       fx="24"
       fy="42"
       id="radialGradient8201"
       xlink:href="#linearGradient6310-8"
       gradientUnits="userSpaceOnUse"
       gradientTransform="matrix(0.33333332,0,0,0.14285711,6.5e-7,8.0000015)" />
    <radialGradient
       cx="142.62215"
       cy="191.85428"
       r="78.728165"
       fx="142.62215"
       fy="191.85428"
       id="radialGradient8208"
       xlink:href="#linearGradient4035"
       gradientUnits="userSpaceOnUse"
       gradientTransform="matrix(0.06165082,0,0,-0.0653716,-1.0370648,17.524179)" />
    <radialGradient
       cx="141.74666"
       cy="206.42612"
       r="78.728165"
       fx="141.74666"
       fy="206.42612"
       id="radialGradient8211"
       xlink:href="#linearGradient4035"
       gradientUnits="userSpaceOnUse"
       gradientTransform="matrix(0.12708936,-0.00212891,9.4059438e-4,0.12249323,-10.298148,-14.500064)" />
    <linearGradient
       x1="12.277412"
       y1="37.205811"
       x2="12.221823"
       y2="33.758667"
       id="linearGradient8220"
       xlink:href="#linearGradient4236-0"
       gradientUnits="userSpaceOnUse"
       gradientTransform="matrix(0.5545779,0,0,0.35955055,-2.132306,1.7913054)" />
    <linearGradient
       x1="7.0625"
       y1="35.28125"
       x2="24.6875"
       y2="35.28125"
       id="linearGradient8223"
       xlink:href="#linearGradient6309"
       gradientUnits="userSpaceOnUse"
       gradientTransform="matrix(0.5545779,0,0,0.35955055,-1.6911436,1.3146057)" />
  </defs>
  <path
     d="M 1.4897093,1.4657632 0.514749,12.488885 C 0.505,12.488885 0.5,12.491788 0.5,12.499999 l 14.999999,0 c 0,-0.0082 -0.005,-0.01111 -0.01475,-0.01111 L 14.479867,1.2478485 c 0,0 -0.187746,-0.74340135 -0.909635,-0.74340135 -0.688148,0 -10.5350353,-0.004447 -11.2600103,-0.004447 -0.75868,0 -0.8205124,0.96576325 -0.8205124,0.96576325 z"
     id="rect2990"
     style="fill:url(#radialGradient8215);fill-opacity:1;fill-rule:nonzero;stroke:none;stroke-width:0.99999988;stroke-linecap:round;stroke-linejoin:round;stroke-miterlimit:4;stroke-opacity:1;stroke-dasharray:none;stroke-dashoffset:0;marker:none;visibility:visible;display:inline;overflow:visible;enable-background:accumulate" />
  <path
     d="M 15.485249,12.488885 14.479867,1.2478483 c 0,0 -0.187746,-0.74340136 -0.909635,-0.74340136 -0.688148,0 -10.5350353,-0.004447 -11.2600103,-0.004447 -0.75868,0 -0.8205124,0.96576326 -0.8205124,0.96576306 L 0.514749,12.488885"
     id="rect2990-0"
     style="display:inline;overflow:visible;visibility:visible;opacity:0.35;fill:none;fill-opacity:1;fill-rule:nonzero;stroke:#000000;stroke-width:1;stroke-linecap:butt;stroke-linejoin:round;stroke-miterlimit:4;stroke-dasharray:none;stroke-dashoffset:0;stroke-opacity:1;marker:none;enable-background:accumulate" />
  <path
     d="m 15.49723,12.5 c -0.304165,2.535038 -0.22639,2.983925 -0.777167,2.983925 -0.21573,0.03617 -8.698317,0 -13.470165,0 C 0.651763,15.483925 0.802893,15.533245 0.5,12.5 Z"
     id="rect2992"
     style="display:inline;overflow:visible;visibility:visible;fill:url(#linearGradient8226);fill-opacity:1;fill-rule:nonzero;stroke:none;stroke-width:1;stroke-linecap:butt;stroke-linejoin:round;stroke-miterlimit:4;stroke-dasharray:none;stroke-dashoffset:0;stroke-opacity:1;marker:none;enable-background:accumulate" />
  <path
     d="m 15.49723,12.5 c -0.304165,2.535038 -0.22639,2.983925 -0.777167,2.983925 -0.21573,0.03617 -8.698317,0 -13.470165,0 C 0.651763,15.483925 0.802893,15.533245 0.5,12.5"
     id="rect2992-2"
     style="display:inline;overflow:visible;visibility:visible;opacity:0.5;fill:none;fill-opacity:1;fill-rule:nonzero;stroke:#000000;stroke-width:1;stroke-linecap:butt;stroke-linejoin:round;stroke-miterlimit:4;stroke-dasharray:none;stroke-dashoffset:0;stroke-opacity:1;marker:none;enable-background:accumulate" />
  <path
     style="display:inline;overflow:visible;visibility:visible;fill:url(#linearGradient8223);fill-opacity:1;fill-rule:evenodd;stroke:none;stroke-width:2.40899992;marker:none"
     id="rect9146"
     d="m 2,13 10,0 0,2 L 2.2255647,15 2,13 Z" />
  <path
     style="opacity:0.81142853;fill:url(#linearGradient8220);fill-opacity:1;fill-rule:evenodd;stroke:none"
     id="path9148"
     d="m 2.2255639,14.999999 c 0,0 -0.1503759,-1.442332 -0.1503759,-1.442332 1.0179428,1.143093 4.7514263,1.442332 7.3252263,1.442332 0,0 -7.1748504,0 -7.1748504,0 z" />
  <path
     style="display:inline;opacity:0.7;fill:none;stroke:#ffffff;stroke-width:0.99999988;stroke-linecap:square;stroke-linejoin:round;stroke-miterlimit:4;stroke-dasharray:none;stroke-opacity:1"
     id="path2215"
     d="m 1.4762913,12.5 13.0474177,0" />
  <path
     style="fill:url(#radialGradient8211);fill-opacity:1"
     id="path8117"
     d="M 9.875,1.03125 C 9.5425325,1.03125 9.2896361,1.1933561 9.28125,1.4375 7.5462296,4.2547045 3.7159646,3.3310272 2.1875,6.6875 2.107281,7.5502069 2.3133647,8.6701052 3.09375,9.375 4.23596,10.40677 6.1379859,11.041207 8.15625,11 12.321615,10.914959 15.990924,8.1997572 12.8125,4.65625 12.794904,4.4114056 12.5625,1.4375 12.5625,1.4375 12.545264,1.1967161 12.267601,1.03125 11.9375,1.03125 l -2.0625,0 z m -0.03125,0.4375 2.0625,0 c 0.119904,0 0.214005,0.027064 0.21875,0.09375 L 11.6875,4.65625 C 15.160987,7.4613605 11.945518,9.7796633 8.25,9.90625 4.8918537,10.021279 2.9699492,8.847871 3.15625,6.84375 4.3344434,3.466723 8.863656,5.0817755 9.625,1.5625 9.6054609,1.4997867 9.7265155,1.46875 9.84375,1.46875 Z" />
  <path
     style="display:inline;overflow:visible;visibility:visible;fill:url(#radialGradient8208);fill-opacity:1;fill-rule:nonzero;stroke-width:1;stroke-linecap:butt;stroke-linejoin:miter;stroke-miterlimit:4;stroke-dasharray:none;stroke-dashoffset:0;stroke-opacity:1;marker:none;enable-background:accumulate"
     id="path9400"
     d="M 7.9999249,8.9999497 C 7.3338259,9.003979 6.6178906,8.7647964 6.2182574,8.2045172 5.8878761,7.7376942 5.9413392,7.042109 6.3494314,6.63805 6.8327879,6.1198432 7.5866528,5.9505056 8.2718727,6.0129013 8.8789744,6.0691126 9.5104356,6.3443475 9.8353698,6.8829643 10.086844,7.3170303 10.047208,7.9041627 9.7164741,8.2868807 9.3098043,8.7947936 8.6299115,8.9998014 7.9999249,8.9999497 Z m 0.033529,-2.05954 C 7.5676631,6.950996 7.0685483,6.9372219 6.6531228,7.1810992 6.3786983,7.3719617 6.3550571,7.7834456 6.5399472,8.0446579 6.791609,8.4367198 7.2662569,8.6084808 7.7086272,8.6682148 8.2791121,8.7399813 8.9061994,8.6113728 9.334753,8.2097584 9.5762055,7.9697526 9.6865747,7.5362831 9.4461096,7.2585712 9.2078802,7.0082999 8.8377224,6.985091 8.5141086,6.9541818 8.3541203,6.9436237 8.1937276,6.9420228 8.0334539,6.9404097 Z" />
  <g
     id="g9436"
     transform="matrix(-0.04685826,0,0,0.07750161,4.3055193,-2.991086)">
    <path
       style="fill:#535353;fill-opacity:1"
       id="path9438"
       d="m 37.925296,187.15033 c 0.31446,3.45855 5.02375,6.27902 10.51419,6.27902 5.48794,0 9.6432,-2.82047 9.27634,-6.27902 -0.36437,-3.44025 -5.07117,-6.21806 -10.5067,-6.21806 -5.43803,0.002 -9.59329,2.77781 -9.28383,6.21806 l 0,0 z" />
  </g>
  <g
     id="g9496"
     transform="matrix(-0.04685826,0,0,0.07750161,16.205519,-2.991086)">
    <path
       style="fill:#535353;fill-opacity:1"
       id="path9498"
       d="m 37.925296,187.15033 c 0.31446,3.45855 5.02375,6.27902 10.51419,6.27902 5.48794,0 9.6432,-2.82047 9.27634,-6.27902 -0.36437,-3.44025 -5.07117,-6.21806 -10.5067,-6.21806 -5.43803,0.002 -9.59329,2.77781 -9.28383,6.21806 l 0,0 z" />
  </g>
  <rect
     style="opacity:0.2;fill:url(#radialGradient8201);fill-opacity:1;stroke:none"
     id="rect6300-3"
     y="13"
     x="1"
     height="2"
     width="14" />
  <path
     style="display:inline;overflow:visible;visibility:visible;fill:url(#radialGradient8198);fill-opacity:1;fill-rule:nonzero;stroke:none;stroke-width:1;marker:none;enable-background:accumulate"
     id="path8125"
     d="M 3.5490052,1.2794204 C 3.5821222,1.4638603 3.5033392,1.668064 3.4765882,1.8577602 3.3642225,2.4379547 3.248083,3.0174209 3.1387788,3.5982061 3.0364568,3.976483 3.4034434,3.822574 3.4487925,3.8610185 3.9285086,3.6778743 4.4037673,3.4775049 4.8813544,3.2862237 5.3796101,3.0823738 5.8809457,2.8849464 6.3772748,2.677079 6.6902572,2.4909307 6.7820665,2.323762 6.8635898,2.0428768 6.9084532,1.7990145 6.9138614,1.5262921 6.7919595,1.3034032 6.7139126,1.1493881 6.5435087,1.0841579 6.379809,1.1073783 c -0.8675476,0 -1.7350953,0 -2.6026429,0 L 3.5490052,1.2794204 Z m 0.588988,0.4439693 c 0.5921265,0 1.184253,-1e-7 1.7763795,-1e-7 0.1871044,0.070513 0.054625,0.2194806 -0.083295,0.2325189 C 5.229708,2.1997992 4.6283387,2.4436898 4.0269694,2.6875804 3.8824333,2.7420385 3.8720481,2.5203138 3.9157358,2.4262942 c 0.037079,-0.2075185 0.074157,-0.415037 0.1112359,-0.6225555 0.041217,-0.021125 0.065659,-0.065363 0.1110215,-0.080349 z" />
  <path
     style="display:inline;overflow:visible;visibility:visible;fill:none;fill-opacity:1;fill-rule:nonzero;stroke:url(#linearGradient4161);stroke-width:1;stroke-linecap:round;stroke-linejoin:round;stroke-miterlimit:4;stroke-dasharray:none;stroke-dashoffset:0;stroke-opacity:1;marker:none;enable-background:accumulate;color:#000000;clip-rule:nonzero;opacity:0.6;isolation:auto;mix-blend-mode:normal;color-interpolation:sRGB;color-interpolation-filters:linearRGB;solid-color:#000000;solid-opacity:1;filter-blend-mode:normal;filter-gaussianBlur-deviation:0;color-rendering:auto;image-rendering:auto;shape-rendering:auto;text-rendering:auto"
     id="path4266"
     d="m 2.4980469,1.5019531 c -0.00136,0.00636 -0.00781,0.027344 -0.00781,0.027344 a 1.0015087,1.0015087 0 0 1 -0.00195,0.023437 l -0.8789062,9.9453126 12.78125,0 -0.892578,-9.9921876 C 12.708012,1.5058107 3.4947245,1.5020781 2.4980469,1.5019531 Z" />
</svg>

<svg xmlns="http://www.w3.org/2000/svg" xmlns:xlink="http://www.w3.org/1999/xlink" viewBox="0 0 16 16"><defs><linearGradient id="c"><stop offset="0" stop-color="#fff"/><stop offset=".021" stop-color="#fff" stop-opacity=".235"/><stop offset=".992" stop-color="#fff" stop-opacity=".157"/><stop offset="1" stop-color="#fff" stop-opacity=".392"/></linearGradient><linearGradient id="b"><stop offset="0" stop-color="#7a7a7a"/><stop offset="1" stop-color="#474747"/></linearGradient><linearGradient id="a"><stop offset="0" stop-color="#e6e6e6"/><stop offset="1" stop-color="#c8c8c8"/></linearGradient><radialGradient cx="4.199" cy="2.312" r="8" fx="4.199" fy="2.312" id="i" xlink:href="#a" gradientUnits="userSpaceOnUse" gradientTransform="matrix(1.1767 1.0377 -.76928 .87233 1.036 -3.277)"/><linearGradient x1="53.991" y1="87.896" x2="53.991" y2="104.281" id="j" xlink:href="#b" gradientUnits="userSpaceOnUse" gradientTransform="matrix(.1242 0 0 .1864 .233 -3.99)"/><linearGradient gradientTransform="translate(4.716 -.014) scale(.2675)" gradientUnits="userSpaceOnUse" xlink:href="#c" id="q" y2="41.034" x2="24" y1="7.34" x1="24"/><linearGradient id="d"><stop offset="0" stop-color="#f5f5f5"/><stop offset=".25" stop-color="#e7e7e7"/><stop offset=".693" stop-color="#8c8c8c"/><stop offset=".835" stop-color="#ddd"/><stop offset="1" stop-color="#a8a8a8"/></linearGradient><linearGradient id="g"><stop offset="0" stop-color="#eee"/><stop offset="1" stop-color="#eee" stop-opacity="0"/></linearGradient><linearGradient id="h"><stop offset="0"/><stop offset="1" stop-color="#bbb" stop-opacity="0"/></linearGradient><linearGradient id="f"><stop offset="0" stop-color="#f5f5f5"/><stop offset=".47" stop-color="#e7e7e7"/><stop offset=".693" stop-color="#8c8c8c"/><stop offset=".835" stop-color="#ddd"/><stop offset="1" stop-color="#a8a8a8"/></linearGradient><linearGradient id="e"><stop offset="0" stop-color="#fff"/><stop offset="1" stop-color="#fff" stop-opacity="0"/></linearGradient><radialGradient cx="127.317" cy="143.828" r="78.728" fx="127.317" fy="143.828" id="p" xlink:href="#d" gradientUnits="userSpaceOnUse" gradientTransform="matrix(.0418 -.01388 .0034 .03798 -.542 -.796)"/><radialGradient cx="24" cy="42" r="21" fx="24" fy="42" id="o" xlink:href="#e" gradientUnits="userSpaceOnUse" gradientTransform="matrix(.33333 0 0 .14286 0 8)"/><radialGradient cx="142.622" cy="191.854" r="78.728" fx="142.622" fy="191.854" id="n" xlink:href="#f" gradientUnits="userSpaceOnUse" gradientTransform="matrix(.06165 0 0 -.06537 -1.037 17.524)"/><radialGradient cx="141.747" cy="206.426" r="78.728" fx="141.747" fy="206.426" id="m" xlink:href="#f" gradientUnits="userSpaceOnUse" gradientTransform="matrix(.1271 -.00213 .00094 .1225 -10.298 -14.5)"/><linearGradient x1="12.277" y1="37.206" x2="12.222" y2="33.759" id="l" xlink:href="#g" gradientUnits="userSpaceOnUse" gradientTransform="matrix(.55458 0 0 .35955 -2.132 1.79)"/><linearGradient x1="7.063" y1="35.281" x2="24.688" y2="35.281" id="k" xlink:href="#h" gradientUnits="userSpaceOnUse" gradientTransform="matrix(.55458 0 0 .35955 -1.69 1.315)"/></defs><path d="M1.49 1.466L.515 12.49c-.01 0-.015.002-.015.01h15c0-.008-.005-.01-.015-.01L14.48 1.247s-.188-.744-.91-.744L2.31.5c-.758 0-.82.966-.82.966z" fill="url(#i)" overflow="visible"/><path d="M15.485 12.49L14.48 1.247s-.188-.744-.91-.744L2.31.5c-.758 0-.82.966-.82.966L.515 12.49" overflow="visible" opacity=".35" fill="none" stroke="#000" stroke-linejoin="round"/><path d="M15.497 12.5c-.304 2.535-.226 2.984-.777 2.984-.216.036-8.698 0-13.47 0-.598 0-.447.05-.75-2.984z" overflow="visible" fill="url(#j)"/><path d="M15.497 12.5c-.304 2.535-.226 2.984-.777 2.984-.216.036-8.698 0-13.47 0-.598 0-.447.05-.75-2.984" overflow="visible" opacity=".5" fill="none" stroke="#000" stroke-linejoin="round"/><path d="M2 13h10v2H2.226L2 13z" overflow="visible" fill="url(#k)" fill-rule="evenodd"/><path d="M2.226 15l-.15-1.442C3.092 14.7 6.826 15 9.4 15H2.226z" opacity=".811" fill="url(#l)" fill-rule="evenodd"/><path d="M1.476 12.5h13.048" opacity=".7" fill="none" stroke="#fff" stroke-linecap="square" stroke-linejoin="round"/><path d="M9.875 1.03c-.332 0-.585.163-.594.407-1.73 2.818-5.56 1.893-7.09 5.25-.08.863.13 1.983.91 2.688C4.24 10.407 6.14 11.04 8.16 11c4.165-.085 7.834-2.8 4.655-6.344-.017-.245-.25-3.218-.25-3.218-.017-.24-.294-.407-.624-.407H9.87zm-.03.44h2.06c.12 0 .215.026.22.093l-.438 3.093c3.474 2.805.26 5.124-3.437 5.25-3.358.115-5.28-1.058-5.094-3.062 1.178-3.377 5.708-1.762 6.47-5.282-.02-.062.1-.093.218-.093z" fill="url(#m)"/><path d="M8 9c-.666.004-1.382-.235-1.782-.795-.33-.467-.277-1.163.13-1.567.485-.518 1.24-.687 1.924-.625.607.056 1.238.33 1.563.87.252.434.212 1.02-.12 1.404C9.31 8.795 8.63 9 8 9zm.033-2.06c-.465.01-.964-.003-1.38.24-.274.192-.298.603-.113.865.252.392.726.563 1.17.623.57.072 1.196-.057 1.625-.458.24-.24.352-.674.11-.95-.237-.252-.607-.275-.93-.306-.16-.01-.32-.012-.482-.014z" overflow="visible" fill="url(#n)"/><path d="M2.528 11.513a.51.51 0 0 1-.492.487c-.257 0-.452-.22-.435-.487a.51.51 0 0 1 .5-.482.45.45 0 0 1 .437.49zm11.9 0a.51.51 0 0 1-.492.487c-.257 0-.452-.22-.435-.487a.51.51 0 0 1 .5-.483.45.45 0 0 1 .438.488z" fill="#535353"/><path opacity=".2" fill="url(#o)" d="M1 13h14v2H1z"/><path d="M3.55 1.28c.032.184-.047.388-.073.578-.113.58-.23 1.16-.338 1.74-.11.378.26.225.31.263.48-.18.95-.38 1.43-.57.5-.2 1-.4 1.49-.61.31-.18.403-.35.485-.63.044-.242.05-.515-.07-.74a.387.387 0 0 0-.41-.194h-2.6l-.23.17zm.588.443h1.776c.187.07.055.22-.083.233l-1.8.732c-.14.054-.15-.168-.11-.262l.11-.622c.04-.02.07-.066.11-.08z" overflow="visible" fill="url(#p)"/><path style="isolation:auto;mix-blend-mode:normal;filter-blend-mode:normal;filter-gaussianBlur-deviation:0" d="M2.498 1.502a.596.596 0 0 1-.008.027 1.002 1.002 0 0 1-.002.02l-.88 9.94H14.39L13.5 1.5l-11-.004z" overflow="visible" fill="none" stroke="url(#q)" stroke-linecap="round" stroke-linejoin="round" color="#000" opacity=".6"/></svg>
